( Made using CamBam - http://www.cambam.co.uk )
( Sans titre 3/10/2023 1:33:25 PM )
( T0 : 0.0 )
G21 G90 G64 G40
G0 Z150.0
( T0 : 0.0 )
T0 M6
( Contour1 )
G17
M3 S1000
G0 X-50.0 Y-50.0
G0 Z101.0
G1 F300.0 Z100.0
G1 F800.0 X50.0 Z97.5
G1 Y50.0 Z95.0
G1 X-50.0 Z92.5
G1 Y-50.0 Z90.0
G1 X50.0 Z87.5
G1 Y50.0 Z85.0
G1 X-50.0 Z82.5
G1 Y-50.0 Z80.0
G1 X50.0 Z77.5
G1 Y50.0 Z75.0
G1 X-50.0 Z72.5
G1 Y-50.0 Z70.0
G1 X50.0 Z67.5
G1 Y50.0 Z65.0
G1 X-50.0 Z62.5
G1 Y-50.0 Z60.0
G1 X50.0 Z57.5
G1 Y50.0 Z55.0
G1 X-50.0 Z52.5
G1 Y-50.0 Z50.0
G1 X50.0 Z47.5
G1 Y50.0 Z45.0
G1 X-50.0 Z42.5
G1 Y-50.0 Z40.0
G1 X50.0 Z37.5
G1 Y50.0 Z35.0
G1 X-50.0 Z32.5
G1 Y-50.0 Z30.0
G1 X50.0 Z27.5
G1 Y50.0 Z25.0
G1 X-50.0 Z22.5
G1 Y-50.0 Z20.0
G1 X50.0 Z17.5
G1 Y50.0 Z15.0
G1 X-50.0 Z12.5
G1 Y-50.0 Z10.0
G1 X50.0 Z7.5
G1 Y50.0 Z5.0
G1 X-50.0 Z2.5
G1 Y-50.0 Z0.0
G1 X50.0
G1 Y50.0
G1 X-50.0
G1 Y-50.0
G0 Z150.0
M5
M30
